frontend/public/svg/e-commerce/box.svg

<svg width="161" height="152" viewBox="0 0 161 152" fill="none" xmlns="http://www.w3.org/2000/svg">
<path d="M156.437 31.9991C152.685 24.4151 148.804 16.5752 143.055 9.92843C138.842 5.05579 134.537 2.62552 129.509 2.27831C128.17 2.18643 126.802 2.05097 125.481 1.9197C123.165 1.68999 120.77 1.45321 118.396 1.43418L116.405 1.41848C98.8406 1.27539 80.6778 1.1288 62.8141 1.26401C57.4636 1.3047 52.037 1.6723 46.7883 2.02738C44.0973 2.20985 41.3151 2.39838 38.5807 2.54015C31.8205 2.89129 26.7417 5.50343 23.0649 10.529C18.9641 16.1328 14.848 21.7253 10.7166 27.3064C8.38048 30.4703 6.0463 33.6353 3.71411 36.8015C2.1074 38.9838 0.597224 41.7239 1.57845 45.4848C1.85522 46.8724 1.92615 48.2935 1.78909 49.7019C1.7648 50.2513 1.74119 50.7987 1.73725 51.3428C1.71821 54.1722 1.67949 57.0024 1.64142 59.8319C1.56791 65.2139 1.49309 70.7788 1.5561 76.2553C1.62173 81.9733 1.77142 87.7845 1.91647 93.4041C2.06152 99.0237 2.21179 104.848 2.27677 110.569C2.30959 113.47 2.19798 116.431 2.08969 119.298C1.97745 122.283 1.86061 125.369 1.9059 128.411C1.984 133.539 3.64525 145.628 17.3614 147.145C17.9567 147.211 18.5428 147.328 19.1676 147.452C20.0086 147.641 20.8624 147.765 21.7221 147.826C38.9557 148.613 56.1899 149.384 73.4246 150.137L85.9679 150.691H85.9974C86.174 150.691 86.3433 150.622 86.4693 150.498C86.5953 150.375 86.6682 150.207 86.6721 150.03L86.6767 149.804C90.326 149.804 93.9752 149.806 97.6251 149.81C107.733 149.818 118.184 149.826 128.464 149.778C132.118 149.76 135.876 149.569 139.954 149.193C151.562 148.124 159.486 139.591 159.67 127.96C160.08 102.112 160.421 75.595 160.685 49.1465C160.726 44.9584 160.769 40.6273 158.624 36.3906C157.885 34.9289 157.161 33.4641 156.437 31.9991ZM96.5356 104.873L68.1752 105.982L64.7503 43.9641H96.5356V104.873ZM8.54942 61.9368C8.63015 59.2996 8.71081 56.6624 8.76266 54.0246C8.80336 51.9715 8.79351 49.9073 8.78235 47.7237C8.77841 46.8875 8.77448 46.0289 8.77316 45.1415L57.8903 43.9077C57.9257 44.0062 57.9598 44.0973 57.9919 44.184C58.0875 44.3965 58.1538 44.6211 58.1888 44.8515C58.3582 50.2435 58.5216 55.6353 58.6791 61.027C58.9843 71.2849 59.3001 81.8913 59.6775 92.3218C59.8744 97.7583 60.3253 103.269 60.7611 108.599L60.8878 110.155C61.1503 113.363 62.843 114.731 66.4307 114.655C68.3872 114.602 70.3687 114.465 72.2832 114.334C73.8959 114.222 75.5649 114.108 77.2005 114.044C81.7555 113.867 86.3893 113.722 90.8707 113.585C93.3832 113.505 95.8956 113.424 98.4094 113.342C102.653 113.201 104.548 111.439 104.95 107.259C105.331 103.438 105.52 99.5986 105.518 95.7577C105.475 83.775 105.374 71.5927 105.276 59.812C105.239 55.2829 105.202 50.7544 105.166 46.226C105.162 45.5618 105.163 44.8963 105.166 44.1737V43.6991H152.635C152.635 44.8135 152.639 45.9074 152.647 46.9807C152.66 49.757 152.671 52.3798 152.624 55.0222C152.524 60.4344 152.412 65.8462 152.288 71.258C152.156 77.1834 152.035 83.1088 151.923 89.0336C151.813 95.2661 151.718 101.499 151.638 107.731C151.551 113.963 151.456 120.194 151.354 126.424C151.189 135.683 146.432 140.918 137.591 141.563C127.456 142.303 117.385 142.668 107.691 142.655C84.4366 142.619 60.4105 142.382 36.2809 141.95C30.0331 141.725 23.8065 141.094 17.6409 140.058C12.2931 139.255 10.2034 137.128 9.35868 131.63C9.00118 128.84 8.83709 126.029 8.86774 123.218L8.7515 115.538C8.5546 102.654 8.34595 89.3309 8.28229 76.2278C8.258 71.4647 8.40568 66.6216 8.54942 61.9374V61.9368ZM11.9689 38.1452C14.1278 35.4127 16.2903 32.6839 18.4562 29.9592C22.7106 24.5989 27.1099 19.0562 31.386 13.5633C33.3793 11.0036 36.1412 10.4693 38.5795 10.2816C45.6023 9.74997 53.1442 9.20462 60.7164 8.81541C70.4153 8.31574 80.0156 8.0662 89.518 8.06712C101.896 8.06712 114.053 8.49112 125.876 9.33911C128.297 9.42935 130.663 10.0936 132.777 11.2773C134.891 12.461 136.694 14.1302 138.036 16.1473C142.351 22.2945 146.071 28.8383 149.146 35.6903L11.9689 38.1452Z" fill="black"/>
</svg>

<svg xmlns="http://www.w3.org/2000/svg" width="161" height="152" fill="none" viewBox="0 0 161 152"><path fill="#000" d="M156.437 32c-3.752-7.585-7.633-15.425-13.382-22.072-4.213-4.872-8.518-7.302-13.546-7.65a134 134 0 0 1-4.028-.358c-2.316-.23-4.711-.467-7.085-.486l-1.991-.016c-17.564-.143-35.727-.29-53.59-.154-5.351.04-10.778.408-16.027.763a520 520 0 0 1-8.207.513c-6.76.351-11.84 2.963-15.516 7.989q-6.15 8.406-12.348 16.777-3.504 4.747-7.003 9.495c-1.607 2.183-3.117 4.923-2.136 8.684a14.4 14.4 0 0 1 .211 4.217 45 45 0 0 0-.052 1.64c-.019 2.83-.058 5.66-.096 8.49-.073 5.382-.148 10.947-.085 16.423.066 5.718.215 11.53.36 17.15.146 5.619.296 11.443.36 17.164.034 2.901-.078 5.862-.186 8.729-.113 2.985-.23 6.071-.184 9.113.078 5.128 1.74 17.217 15.455 18.734.596.066 1.182.183 1.807.307a17 17 0 0 0 2.554.374q25.85 1.181 51.703 2.311l12.543.554h.03a.67.67 0 0 0 .674-.661l.005-.226q5.473 0 10.948.006c10.108.008 20.559.016 30.839-.032 3.654-.018 7.412-.209 11.49-.585 11.608-1.069 19.532-9.602 19.716-21.233.41-25.848.751-52.365 1.015-78.813.041-4.189.084-8.52-2.061-12.756a539 539 0 0 1-2.187-4.392m-59.901 72.873-28.36 1.109-3.426-62.018h31.786zM8.549 61.937c.081-2.637.162-5.275.214-7.912.04-2.053.03-4.118.02-6.301q-.008-1.253-.01-2.582l49.117-1.234.102.276q.144.32.197.668.255 8.088.49 16.175c.305 10.258.621 20.864.999 31.295.196 5.436.647 10.947 1.083 16.277l.127 1.556c.262 3.208 1.955 4.576 5.543 4.5 1.956-.053 3.938-.19 5.852-.321a164 164 0 0 1 4.918-.29c4.555-.177 9.188-.322 13.67-.459l7.538-.243c4.244-.141 6.139-1.903 6.541-6.083.381-3.821.57-7.66.568-11.501-.043-11.983-.144-24.165-.242-35.946l-.11-13.586a200 200 0 0 1 0-2.052v-.475h47.469q0 1.671.012 3.282c.013 2.776.024 5.399-.023 8.041q-.15 8.118-.336 16.236-.197 8.887-.365 17.776a3887 3887 0 0 0-.285 18.697 7752 7752 0 0 1-.284 18.693c-.165 9.259-4.922 14.494-13.763 15.139a405 405 0 0 1-29.9 1.092 4389 4389 0 0 1-71.41-.705 144 144 0 0 1-18.64-1.892c-5.348-.803-7.438-2.93-8.282-8.428a61 61 0 0 1-.491-8.412l-.117-7.68c-.196-12.884-.405-26.207-.469-39.31-.024-4.763.124-9.606.267-14.29zm3.42-23.792q3.238-4.098 6.487-8.186c4.255-5.36 8.654-10.903 12.93-16.396 1.993-2.56 4.755-3.094 7.194-3.281 7.022-.532 14.564-1.077 22.136-1.467q14.55-.75 28.802-.748c12.378 0 24.535.424 36.358 1.272a15.3 15.3 0 0 1 12.16 6.808 118.4 118.4 0 0 1 11.11 19.543z"/></svg>
